X: 1
T: Beare Island
R: reel
M: 4/4
L: 1/8
K: Edor
|:EB^GB AGEc|dBcA Beec|d2 fd AFDF|
|GEFD EDB,A,||B,EEF GFGA|(3BBB A=c Bdef|
|g2 fg ef{a}fe|1 dBAF E3 D:|2 dBAF E3 A||
|:Beef gefd|B2 AG FDDA|Beef gefd|
Be^df e2 ef|edBc ~d3c|BcdB AFDF|
G~B3 AFDF|1 GE{G}ED E3 A:|2 GE{G}ED E3 D||


Tune 696	Setting 29644

